X:13
T:Triad Sequential
T: Version 1
M:4/4
L:1/4
Q:1/4=80
K:C
   C/E/G/E/    C2| D/F/A/F/   D2| E/G/B/G/     E2| F/A/c/A/ F2 |
w:do mi sol me do|re fa la fa re|mi sol ti sol mi|fa la do la fa|
    G/B/d/B/    G2| A/c/e/c/   A2|  B/d/f/d/  B2| c4 ||
w:sol ti re ti sol|la do mi do la|ti re fa re ti| do ||

